!!!COM: Brahms, Johannes
!!!CDT: 1833-1897
!!!OTL: National Anthem, Micronesia
!!!ENC: Davis, Matthew J.
!!Vocal Line Only
**kern
*clefG2
*k[b-]
*F:
*M4/4
=1-
4c
=2
2a
4g
4a
=3
2f
4c
4c
=4
2cc
4b-
4cc
=5
2.a
4f
=6
4dd
4dd
4dd
4dd
=7
2cc
4a
4cc
=8
4cc
8b-
8a
4b-
4cc
=9
2.a
4f
=10
4dd
4dd
4ff
4dd
=11
2cc
4a
4cc
=12
4cc
8b-
8a
4b-
4g
=13
2f
4r
==|!
*-
